X:1
T:Media vita in morte sumus
T:Rheinberger op. 24 no. 3 edit BMarble
T:Media vita in morte sumus
T:Copyright © 2017 by The Choral Public Domain Library. Edition may be freely distributed, duplicated, performed or recorded.
T:Copyright © 2017 by The Choral Public Domain Library. Edition may be freely distributed, duplicated, performed or recorded.
C:Rheinberger op. 24 no. 3
C:edit BMarble
Z:Copyright © 2017 by The Choral Public Domain Library. Edition may be freely distributed, duplicated, performed or recorded.
%%score { ( 1 4 ) | ( 2 3 ) }
L:1/8
Q:1/4=60
M:3/4
K:C
V:1 treble nm="Choir" snm="Choir"
V:4 treble 
V:2 bass 
V:3 bass 
V:1
"^In the midst of life we are in death;of whom may we seek for succor,if  not of thee, O Lord,who for our sins are justly displeased?Lord God most holy,Lord most mighty,holy and most merciful Savior,deliver us not into the bitter pains of eternal death."!p! [EA]3 [EA] [EA]2 | %1
w: Me- di- a|
w: |
 [EA]2 [E^G]2 z [EG] | [E=G]4 [EG]2 | [^DG]2 [D^F]2 z [DF] | [=D=F]4 [DF]2 | %5
w: vi- ta in|mor- te|su- mus, in|mor- te|
w: ||||
 [DF]2 [DE]2 !fermata!z2 |!f! e4 e2- | e>^d d4 | e4 e2 | e2 ^d4 | z2!pp! [^DA]3 [D^G] | %11
w: su- mus.|||||ni- si|
w: |Quem quae-|* ri- mus|ad- ju-|to- rem||
!<(! [=DB]6!<)! |!>(! [Cc]3 [CE]!>)! [CE]2- | [CE]2 z2!p! [CE]2- | [CE]2!<(! [B,D]2 [A,C]2 | %15
w: te?|Do- mi- ne,|_ qui|_ pro pec-|
w: ||||
 [CA]4 [DF]2- | [DF]>[DF] [^CE]2!<)! D2 | [^Gd]4 [=G^c]2 |!f! [G^c]2 [Fd]2 [Ee]2 | %19
w: ca- tis,|_ pec- ca- tis|nos- tris|ju- ste i-|
w: ||||
 [Df]>[Ee] [Fd]4- | [Fd]2 z2 z2 |!f! z6 | z2!ff! e2 ^d2 | a2 ^g2 !fermata!z2 | z6 |!pp! z6 | %26
w: ra- sce- ris,|_||* cte|De- us!|||
w: |||san- cte|De- us!|||
!p! e4 e2 |!>(! d4!>)! d2 | ^c4 c2 |!>(! B4!>)! B2 |!<(! A4!<)! A2 |!>(! A2!>)! ^G2!pp! z2 | %32
w: |* us,|* san-|for- tis,||va- tor,|
w: San- cte|for- tis,|et mi-|se- ri-|cors sal-|va- tor|
 ^F2 F2 F2 | ^F4 =F2 |!<(!!<(! E2 B3!<)!!<)! B |!>(! B4!>)!!pp! A2 |"^rit." A6 | ^G6 | %38
w: a- ma- rae|mor- ti||nos, ne|||
w: a- ma- rae|mor- ti|ne tra- das|nos, ne|tra-|das|
 !fermata![EA]6 |] %39
w: nos!|
w: nos!|
V:2
!p! [A,,C]3 [B,,C] [C,C]2 | [D,B,]2 [D,B,]2 z [D,B,] | ^A,4 A,2 | [B,,=A,]2 [B,,A,]2 z [B,,A,] | %4
w: ||||
w: ||||
w: Me- di- a|vi- ta in|mor- te|su- mus, in|
w: ||||
!<(! A,2 _B,3!<)! B, | =B,2 B,2 !fermata!z2 | z2!f! [A,C]4 | [A,C]3 [A,C] [A,C]2 | %8
w: ||||
w: ||||
w: mor- * te|su- mus.|Quem|quae- ri- mus|
w: ||Quem|quae- ri- mus|
 z2 [A,C]3 [A,C] | [A,C]4 [A,C]2 |!pp! z2!pp! A,3!<(! B,!<)! | ^G,6 |!>(! =G,3 G,!>)! G,2- | %13
w: |||||
w: |||||
w: ad- ju-|to- rem|* si|te?|Do- * *|
w: ad- ju-|to- rem||||
 G,2 z2!p! G,2 | F,4!<(! E,2 | A,4 A,2 | G,4!<)! F,F | F4 E2 |!f! E2 D2 ^C2 | D>!f!D D4- | %20
w: |||||||
w: |||||||
w: ||* ca-|nos- tris *|* ste|ra- sce- *|* * san-|
w: * qui|pro pec-|ca- tus|nos- tris _|ju- ste,|ju- ste i-|ra- sce- ris,|
 D2!f!!<(! D2 ^C2!<)! | F4 E2 | z2!ff! A,2 B,2 | C2 B,2 !fermata!z2 |!pp!!pp! E4 E2 | D4 D2 | %26
w: ||||||
w: ||||||
w: De- * us!||san- cte|De- us!|* San-|* cte|
w: _ san- cte|De- us,|||San- cte|for- tis,|
 ^C4 C2 | B,4 B,2 | A,4 A,2 | ^G,4 G,2 |!<(! E,4!<)! E,2 |!>(! ^D,2!>)! E,2!pp! z2 | ^C2 C2 C2 | %33
w: |||||||
w: |||||||
w: _ for-|* tis|* et|se- ri-||||
w: san- cte,|san- cte|et mi-|se- ri-|cors sal-|va- tor,|a- ma- rae|
 ^F,2 B,2 A,2 |!<(! ^G,2 G,2 G,2!<)! | A,2 E3 E |!pp! E4 E2- | E2 D3 ^C | !fermata![A,,^C]6 |] %39
w: ||||||
w: ||||||
w: mor- * ti|ne tra- das|nos, * ne|tra- *|* * das|nos!|
w: mor- * ti|ne tra- das,|ne tra- das|nos, ne|_ tra- das|nos!|
V:3
 x6 | x6 | D,2 ^C,2 =C,2 | x6 | B,,2 _B,,2 A,,2 | ^G,,2 G,,2 x2 | x6 | x6 | x6 | x6 | F,4 F,2 | %11
w: |||||||||||
w: |||||||||||
w: ||||||||||ni- *|
 E,6 | E,3 E, E,2 | !^!E,2 !^!D,2 !^!C,2 | G,,4 A,,2 | !^!F,2 !^!E,2 !^!D,2 | A,,4 _B,,2 | %17
w: ||||||
w: ||||||
w: |* mi- ne,|qui * pec-|ca- tis,|pec- * *||
 !^!_B,2 !^!B,2 !^!B,2 | A,>A, A,4 | z2 ^G,2 A,2 | _B,4 A,2 | z6 | x2 A,2 F,2 | E,2 E,2 x2 | %24
w: |||||||
w: |||||||
w: ju- * *|||||||
 z2 ^C4- | C2 B,4- | B,2 A,4- | A,2 ^G,4 | z2 E,2 E,2 | D,4 D,2 | D,2 ^C,2 =C,2 | B,,2 E,2 x2 | %32
w: ||||||||
w: ||||||||
w: ||||||cors _ sal-|va- tor,|
 ^A,,2 A,,2 A,,2 | B,,4 =D,2 | E,2 E,2 E,2 | E,4!>)!!>(! E,2 | E,,6 | E,4 E,2 | x6 |] %39
w: |||||||
w: |||||||
w: a- ma- rae|||||||
V:4
 x6 | x6 | x6 | x6 | x6 | x6 | z2 E4 | =F3 F F2 | z2 E3 E | =F4 F2 | x6 | x6 | x6 | x6 | x6 | x6 | %16
w: ||||||||||||||||
 x6 | x6 | x6 | x6 | x6 | z2!<(! A2!<)! ^G2 | c4 B2 | ^D2 E2 x2 | x6 | x6 | z2!<(! E3!<)! E | %27
w: |||||San- cte,|||||San- *|
 =F2 E4 | z2!<(! E3!<)! E | =F2 E4 | z2 E2 E>^D | ^F2 E2 x2 | E2 E2 E2 | (E2 ^D2) =D2 | D2 D2 D2 | %35
w: De- *|* cte||san- cte *||||ne tra- das|
 ^C4 =C2 | B,6- | B,4 E2 | x6 |] %39
w: |tra-|* das||

